X:1
T: Gregg's Pipe
C:
R:Reel
Q: 232
K:Am
M:4/4
L:1/8
c|eA cA eA cA|eA cA BE Ec|eA cA eA cA|Bd cA BE Ed|
c2 cB cA Ad|c2 cA BE Ed|c2 cA B2 Bc|AB cA BE Ed|
c2 cB cA Ad|c2 cA BE Ed|c1/2c1/2c cA Bc Bc|AB cA BE Ez|
EA, CA, EA, CA,|EA, CA, E^F GF|EA, CA, EA, CA,|B,C DE CA, A,E|
EA, CA, EA, CA,|EA, CA, E^F GF|EA, CA, EA, CA,|B,C DE CA, A,E|
G^F EF GG, G,F|G^F ED EA, A,F|G^F ED ED CB,|A,B, CD EA, A,||
